X:3232
T:Kendal Ghyll
O:england
R:Jig
M:6/8
K:G
d2e f2g | fed cBA | d2e f2g | agf gfe |     \
d3 def | A3 AGF | G2B A2G | AFD D3 :|
|:F3 A3 | cBA cBA | G3 B3 | dcB dcB | \
F3 A3 | cBA cBA | G3 A2B | AFD D3 :|


